!!!COM: Henri Duparc
!!!CNT: Francais
!!!TXO: Francais
!!!OTL: Le Manoir de Rosemonde
!!!LYR: Robert de Bonnie\res
!!!ENC: Jacob Pegg
!!!YOR: Henri Duparc: Complete Songs for Voice and Piano
!!!YOR: New York: Dover publications, inc., 1995 
!!!YOR: ISBN 0-486-28466-2
!!!ODT: 1879/
!!NB: Vocal melody and text only encoded.
!!NB: First instance of melodic material only encoded.
**kern	**silbe
*clef G2	*
*k[b-]	*
*M9/8	*
*MM[allegro]	*
!! tempo indication: Assez vif, et avec force
!! created: 6/24/03 23:11
=4	=4
8r	.
{8a	{De
8a	sa
4dd	dent
8dd	sou-
[4.ff	-daine
=5	=5
8ff]	|
8ee	et
8ff	vo-
4.dd	-ra-
8dd}	-ce}
8r	.
8r	.
=6	=6
4.r	.
4.r	.
4.r	.
=7	=7
8r	.
{8a	{Comme
8a	un
8d	chien
8r	.
8d	l'a-
[4.ff	-mour
=8	=8
4.ff]	|
[4.dd	m'a
8.dd]	|
8.dd	mor-
=9	=9
4.b}	du}
4.r	.
4.r	.
=13	=13
8r	.
{8a	{En
8a	sui-
8.dd	-vant
8.dd	mon
[4.ff	sang
=14	=14
8ff]	|
8ee	re/-
8ff	-pan-
4.dd}	-du}
4.r	.
=15	=15
4r	.
8r	.
{[4.gg	{Va,
8gg]}	|}
8r	.
8r	.
=16	=16
{8g	{tu
8b-	pour-
8dd	-ras
4.ff	sui-
4ee	-vre
8dd	ma
=17	=17
4.cc#	tra-
8cc#}	-ce..}
8r	.
8r	.
4r	.
8r;	.
=18	=18
1r	.
8r	.
=19	=19
8r	.
1r	.
=20	=20
4r	.
8r	.
4r	.
8r	.
{4.a	{Prends
=21	=21
4f	un
8g	che-
8.a	-val
8.a	de
8.dd	bon-
8.ee	-ne
=22	=22
(8.ff	ra-
8.ee)	|
4.dd}	-ce.}
4r	.
8r	.
=23	=23
4r	.
8r	.
{[4.ff#	Pars,
8ff#]}	|}
8r	.
{8f#	{et
=24	=24
4.a	suis
4a	mon
8bn	che-
4cc#	-min
8dd#	ar-
=25	=25
4.ee}	-du,}
4r	.
8r	.
{4ffn	{Fon-
8ffn	-dri-
=26	=26
4.ee	-e\re
4cc	ou
8a	sen-
4ff#	-tier
8ff#	per-
=27	=27
4.ee}	-du,}
4r	.
8r	.
8r	.
{8gg	{Si
8gg	la
=28	=28
4.gg#	cour-
8.ee#	-se
8.g#	ne
4a#	te
8cc#	ha-
=29	=29
4.cc#	-ras-
4g#}	-se!}
8r	.
4r	.
8r;	.
!!30-33 rest
=34	=34
*M3/4	*
4r	.
4r	.
{8dd	{En
8dd	pas-
=35	=35
8cc	-sant
8b-	par
4b-	ou\
8b-	j'ai
8b-	pas-
=36	=36
4a}	-se/,}
4r	.
{8dd	{Tu
8dd	ver-
=37	=37
4cc	-ras
4r	.
4cc	que
=38	=38
4b-	seul
4r	.
8b-	et
8b-	bles-
=39	=39
4a}	-se/}
8r	.
{8a	{J'ai
8a	par-
8bn	-cou-
=40	=40
8cc	-ru
8a	ce
8cc	tris-
8dd	-te
[4ee	mon-
=41	=41
4ee]	|
8ee}	-de,}
8r	.
4r	.
=42	=42
4r	.
{4gg-	{Et
4gg-	qu'ain-
=43	=43
4ff	-si
8dd-	je
8b-	m'en
(6ggn	fus
12aa-)	mou-
=44	=44
[4gg	-rir
8gg]}	|}
8r	.
{4ff	{Bien
=45	=45
[4ee-	loin,
8ee-]}	|}
8r	.
{4dd-	{bien
=46	=46
2cc-}	loin,}
4r	.
=47	=47
4r	.
{4b-	{sans
8b-	de/-
8b-	-cou-
=48	=48
[2a	-vrir
8a]}	|}
{8d	{le
=49	=49
8f	bleu
8f#	ma-
8g	-noir
8e-	de
(12g	ro-
12a	|
12b-)	-se-
=50	=50
2.a	-mon-
=51	=51
4d}	-de.}
4r	.
4r	.
*-	*-
